svgs/regular/popsicle.svg

<svg xmlns="http://www.w3.org/2000/svg" viewBox="0 0 320 512"><!--! Font Awesome Pro 6.6.0 by @fontawesome - https://fontawesome.com License - https://fontawesome.com/license (Commercial License) Copyright 2024 Fonticons, Inc. --><path d="M272 160c0-61.9-50.1-112-112-112S48 98.1 48 160l0 176 88 0 0-152c0-13.3 10.7-24 24-24s24 10.7 24 24l0 152 88 0 0-176zM136 384l-88 0c-26.5 0-48-21.5-48-48L0 160C0 71.6 71.6 0 160 0s160 71.6 160 160l0 176c0 26.5-21.5 48-48 48l-88 0 0 104c0 13.3-10.7 24-24 24s-24-10.7-24-24l0-104z"/></svg>

<svg xmlns="http://www.w3.org/2000/svg" viewBox="0 0 320 512"><!--! Font Awesome Pro 6.4.2 by @fontawesome - https://fontawesome.com License - https://fontawesome.com/license (Commercial License) Copyright 2023 Fonticons, Inc. --><path d="M272 160c0-61.9-50.1-112-112-112S48 98.1 48 160l0 176h88V184c0-13.3 10.7-24 24-24s24 10.7 24 24V336h88V160zM136 384H48c-26.5 0-48-21.5-48-48V160C0 71.6 71.6 0 160 0s160 71.6 160 160V336c0 26.5-21.5 48-48 48H184V488c0 13.3-10.7 24-24 24s-24-10.7-24-24V384z"/></svg>
